X:1
T:Paradise
T:James McGranahan
T:Paradise
T:Public Domain
T:Public Domain
C:James McGranahan
Z:Public Domain
%%score ( 1 2 ) ( 3 4 )
L:1/8
M:6/8
K:C
V:1 treble 
V:2 treble 
V:3 bass 
V:4 bass 
V:1
 [EG] | [EG]2 [CE] [EG]2 [EG] | [FA]2 [CF] (cB)[FA] | [EG]2 [CE] [EG]2 [DF] | [CE]3- [CE]2 [EG] | %5
w: 1.~How|sweet the word of|Christ the Lord, * While|the cross He dies,|A * word|
w: 2.~The|dy- ing thief, in|full be- lief, * On|sus fixed his eyes;|His * on-|
w: 3.~By|man- con- demned, with-|out a friend, * Will|sus heed his cries?|O * bless-|
w: 4.~Tho’|vile as he, O|sin- ner, flee * While|sus calls, be wise;|His * word|
 [EG]2 [CE] [EG]2 [EG] | [FA]2 [CF] (cB)[FA] | [EG]2 [Ec] [Ec]2 [FB] | [Ec]6 || %9
w: to all who on|Him call For * life|par- a- dise. *||
w: ly plea, “Re- mem-|ber me, O * Lord,|par- a- dise.” From|the|
w: èd Lord, how quick|Thy word, “To- * day|par- a- dise.” *||
w: be- lieve, and now|re- ceive A * life|par- a- dise. *||
"^Refrain" [DB]2 [Ec] [Fd]2 [Ge] | [Ec]2 [FA] [EG]3 | [DB]2 [Ec] [Fd]2 [Ge] | [Ec]2 [Ge] [Gd]3 | %13
w: ||||
w: cross the Sav- ior|cries, “Come with|Me to par- a-|dise; Look to|
w: ||||
w: ||||
 [Ge]2 [Ec] [EG]2 [EG] | [FA]2 [Fc] (cB)[FA] | [EG]2 [Ec] [Ec]2 [Ge] | [Fd]3 ([Ec]2 [DB]) | %17
w: ||||
w: Me, be- lieve and|live, Ac- cept * the|I free- ly give.”||
w: ||||
w: ||||
 [Ec]3- [Ec]2 |] %18
w: |
w: |
w: |
w: |
V:2
 x | x6 | x3 F2 x | x6 | x6 | x6 | x3 F2 x | x6 | x6 || x6 | x6 | x6 | x6 | x6 | x3 F2 x | x6 | %16
w: ||on||||in||||||||||
w: ||Je-||||in||||||||life||
w: ||Je-||||in||||||||||
w: ||Je-||||in||||||||||
 x6 | x5 |] %18
w: ||
w: ||
w: ||
w: ||
V:3
 [C,C] | [C,C]2 [C,G,] [C,C]2 [C,C] | [F,C]2 [F,A,] (A,B,)[F,C] | [G,C]2 [G,C] [G,,C]2 [G,,G,] | %4
 [C,G,]3- [C,G,]2 [C,C] | [C,C]2 [C,G,] [C,C]2 [C,C] | [F,C]2 [F,A,] (A,B,)[F,C] | %7
 [G,C]2 G, G,2 G, | [C,G,]6 || G,2 G, [G,B,]2 [G,C] | [A,C]2 [F,C] [C,C]3 | G,2 G, [G,B,]2 [G,C] | %12
 C2 C [G,B,]3 | [C,C]2 [C,G,] [C,C]2 [C,C] | [D,C]2 [F,A,] (A,B,)[F,C] | %15
 [C,C]2 [C,G,] [C,G,]2 [C,C] | [F,A,]3 G,3 | [C,G,]3- [C,G,]2 |] %18
V:4
 x | x6 | x3 F,2 x | x6 | x6 | x6 | x3 F,2 x | x2 G, G,2 G, | x6 || G,2 G, x3 | x6 | G,2 G, x3 | %12
 C2 C x3 | x6 | x3 F,2 x | x6 | x3 G,3 | x5 |] %18

